svg/curve-sequencer/generate-mode-2.svg

<?xml version="1.0" encoding="UTF-8" standalone="no"?>
<svg xmlns="http://www.w3.org/2000/svg" xmlns:svg="http://www.w3.org/2000/svg" version="1.1" width="9.250mm" height="3.830mm" viewBox="-4.625 -1.915 9.250 3.830">
  <defs/>
  <rect x="-4.500" y="-1.790" width="9.000" height="3.580" fill="#efedeb" stroke="#331a00" stroke-width="0.250" rx="0.500" ry="0.500"/>
  <g style="font-weight:bold;font-size:2.371px;font-family:'Proxima Nova';dominant-baseline:middle;text-anchor:middle;fill:#331a00">
    <path d="m -2.0061995,0.8565965 h 0.339053 v -1.58145703 h -0.339053 v 0.62120201 h -0.746865 v -0.62120201 h -0.336682 V 0.8565965 h 0.336682 V 0.19271649 h 0.746865 z" style="font-weight:bold;font-size:2.371px;font-family:'Proxima Nova';dominant-baseline:middle;text-anchor:middle;fill:#331a00"/>
    <path d="m -1.433677,0.06705348 c 0,0.47657101 0.348537,0.81799502 0.82510799,0.81799502 0.47894201,0 0.82747902,-0.34142401 0.82747902,-0.81799502 0,-0.47657101 -0.34853701,-0.81799502 -0.82747902,-0.81799502 -0.47657099,0 -0.82510799,0.34142401 -0.82510799,0.81799502 z m 1.306421,0 c 0,0.29400401 -0.18968,0.51924901 -0.48131301,0.51924901 -0.29163301,0 -0.47894199,-0.225245 -0.47894199,-0.51924901 0,-0.296375 0.18730898,-0.51924901 0.47894199,-0.51924901 0.29163301,0 0.48131301,0.22287401 0.48131301,0.51924901 z" style="font-weight:bold;font-size:2.371px;font-family:'Proxima Nova';dominant-baseline:middle;text-anchor:middle;fill:#331a00"/>
    <path d="M 0.45749186,0.8565965 H 1.4627959 V 0.56022149 H 0.79417387 V -0.72486053 H 0.45749186 Z" style="font-weight:bold;font-size:2.371px;font-family:'Proxima Nova';dominant-baseline:middle;text-anchor:middle;fill:#331a00"/>
    <path d="m 1.6985621,0.8565965 h 0.623573 c 0.4955391,0 0.8393341,-0.31297201 0.8393341,-0.78954302 0,-0.47657101 -0.343795,-0.79191401 -0.8393341,-0.79191401 h -0.623573 z m 0.336682,-0.29637501 v -0.98870702 h 0.286891 c 0.3248271,0 0.4955391,0.21576101 0.4955391,0.49553901 0,0.26792301 -0.182567,0.49316801 -0.4955391,0.49316801 z" style="font-weight:bold;font-size:2.371px;font-family:'Proxima Nova';dominant-baseline:middle;text-anchor:middle;fill:#331a00"/>
  </g>
</svg>

<?xml version="1.0" encoding="UTF-8" standalone="no"?>
<svg xmlns="http://www.w3.org/2000/svg" xmlns:svg="http://www.w3.org/2000/svg" version="1.1" viewBox="-4.625000 -1.915222 9.250000 3.830444" height="3.830444mm" width="9.250000mm">
  <defs/>
  <g>
    <rect x="-4.5" y="-1.7902222222222222" width="9" height="3.5804444444444443" rx="0.5" ry="0.5" fill="#efedeb" stroke="#18191c" stroke-width="0.25"/>
    <g style="font-weight:bold;font-size:2.37067px;font-family:'Proxima Nova';dominant-baseline:middle;text-anchor:middle;fill:#18191c">
      <path d="m -2.0059174,0.85699603 h 0.3390053 V -0.72423869 H -2.0059174 V -0.103124 h -0.7467601 v -0.62111469 h -0.3366346 v 1.58123472 h 0.3366346 V 0.19320934 h 0.7467601 z" style="font-weight:bold;font-size:2.37067px;font-family:'Proxima Nova';dominant-baseline:middle;text-anchor:middle;fill:#18191c"/>
      <path d="m -1.4334756,0.067564 c 0,0.47650402 0.3484881,0.81788003 0.82499207,0.81788003 0.47887468,0 0.82736269,-0.34137601 0.82736269,-0.81788003 0,-0.47650401 -0.34848801,-0.81788002 -0.82736269,-0.81788002 -0.47650397,0 -0.82499207,0.34137601 -0.82499207,0.81788002 z m 1.30623742,0 c 0,0.29396268 -0.18965334,0.51917602 -0.48124535,0.51917602 -0.29159201,0 -0.47887467,-0.22521334 -0.47887467,-0.51917602 0,-0.29633334 0.18728266,-0.51917601 0.47887467,-0.51917601 0.29159201,0 0.48124535,0.22284267 0.48124535,0.51917601 z" style="font-weight:bold;font-size:2.37067px;font-family:'Proxima Nova';dominant-baseline:middle;text-anchor:middle;fill:#18191c"/>
      <path d="M 0.45742744,0.85699603 H 1.4625901 V 0.56066269 H 0.79406212 V -0.72423869 H 0.45742744 Z" style="font-weight:bold;font-size:2.37067px;font-family:'Proxima Nova';dominant-baseline:middle;text-anchor:middle;fill:#18191c"/>
      <path d="M 1.6983237,0.85699603 H 2.321809 c 0.4954694,0 0.839216,-0.31292801 0.839216,-0.78943203 0,-0.47650401 -0.3437466,-0.79180269 -0.839216,-0.79180269 H 1.6983237 Z M 2.0349583,0.56066269 V -0.42790534 H 2.321809 c 0.3247814,0 0.4954694,0.21573067 0.4954694,0.49546934 0,0.26788535 -0.1825414,0.49309869 -0.4954694,0.49309869 z" style="font-weight:bold;font-size:2.37067px;font-family:'Proxima Nova';dominant-baseline:middle;text-anchor:middle;fill:#18191c"/>
    </g>
  </g>
</svg>
